X:5001
T:Eddystone light, The
C:Trad.
O:England
Z:Paul Hardy's Possible Tunebook 2015 (see www.paulhardy.net). Creative Commons cc by-nc-sa licenced.
M:C
L:1/8
Q:1/4=200
K:C
zG|"C"cccc GGGG|"F"EEF2 "C"G2GG|"F"A2AA "G"B2B2|"C"c2C2 C2z2|
"C"c2c2 G2G2|"F"E2F2 "C"G2z2|"F"A2AA"G"BBBB|"C"ccC2 C2z2|
"D"D2D2 "G"d3c|"C"B2G2 "G"G2z2|"C"G2GG "F"A2B2|"C"c2C2 C2|]

